Papirus/24x24/devices/network-vpn.svg

<svg xmlns="http://www.w3.org/2000/svg" width="24" height="24" version="1">
 <g transform="translate(1,1)">
  <path fill="#d2d2d2" d="m11 1c-3.324 0-6 2.676-6 6v2h2v-2c0-2.216 1.784-4 4-4s4 1.784 4 4v2h2v-2c0-3.324-2.676-6-6-6z"/>
  <rect fill="#fecd38" width="12" height="16" x="-21" y="-19" rx="1" ry="1" transform="matrix(0,-1,-1,0,0,0)"/>
  <path fill="#fff" opacity=".2" d="m11 1c-3.324 0-6 2.676-6 6v0.5c0-3.324 2.676-6 6-6s6 2.676 6 6v-0.5c0-3.324-2.676-6-6-6z"/>
  <path fill="#fff" opacity=".2" d="m4 9c-0.554 0-1 0.446-1 1v0.5c0-0.554 0.446-1 1-1h14c0.554 0 1 0.446 1 1v-0.5c0-0.554-0.446-1-1-1h-14z"/>
  <path opacity=".2" d="m11 3c-2.216 0-4 1.784-4 4v0.5c0-2.216 1.784-4 4-4s4 1.784 4 4v-0.5c0-2.216-1.784-4-4-4z"/>
  <path fill="#fff" opacity=".1" d="m3 18.5v1c0 0.554 0.446 1 1 1h14c0.554 0 1-0.446 1-1v-1c0 0.554-0.446 1-1 1h-14c-0.554 0-1-0.446-1-1z"/>
  <path fill="#cb9a05" d="m3 19v1c0 0.554 0.446 1 1 1h14c0.554 0 1-0.446 1-1v-1c0 0.554-0.446 1-1 1h-14c-0.554 0-1-0.446-1-1z"/>
  <rect fill="#fed96a" width="16" height="7" x="3" y="11" rx="0" ry="0"/>
  <path opacity=".2" d="m3 20v0.5c0 0.554 0.446 1 1 1h14c0.554 0 1-0.446 1-1v-0.5c0 0.554-0.446 1-1 1h-14c-0.554 0-1-0.446-1-1z"/>
 </g>
</svg>

<svg xmlns="http://www.w3.org/2000/svg" width="24" height="24" version="1">
 <g transform="translate(1,1)">
  <path style="fill:#b7b7b7" d="M 11,1 C 7.676,1 5,3.676 5,7 V 9 H 7 V 7 C 7,4.784 8.784,3 11,3 13.216,3 15,4.784 15,7 V 9 H 17 V 7 C 17,3.676 14.324,1 11,1 Z"/>
  <rect fill="#fecd38" width="12" height="16" x="-21" y="-19" rx="1" ry="1" transform="matrix(0,-1,-1,0,0,0)"/>
  <path fill="#fff" opacity=".2" d="m11 1c-3.324 0-6 2.676-6 6v0.5c0-3.324 2.676-6 6-6s6 2.676 6 6v-0.5c0-3.324-2.676-6-6-6z"/>
  <path fill="#fff" opacity=".2" d="m4 9c-0.554 0-1 0.446-1 1v0.5c0-0.554 0.446-1 1-1h14c0.554 0 1 0.446 1 1v-0.5c0-0.554-0.446-1-1-1h-14z"/>
  <path opacity=".2" d="m11 3c-2.216 0-4 1.784-4 4v0.5c0-2.216 1.784-4 4-4s4 1.784 4 4v-0.5c0-2.216-1.784-4-4-4z"/>
  <path fill="#fff" opacity=".1" d="m3 18.5v1c0 0.554 0.446 1 1 1h14c0.554 0 1-0.446 1-1v-1c0 0.554-0.446 1-1 1h-14c-0.554 0-1-0.446-1-1z"/>
  <path fill="#cb9a05" d="m3 19v1c0 0.554 0.446 1 1 1h14c0.554 0 1-0.446 1-1v-1c0 0.554-0.446 1-1 1h-14c-0.554 0-1-0.446-1-1z"/>
  <rect fill="#fed96a" width="16" height="7" x="3" y="11" rx="0" ry="0"/>
  <path opacity=".2" d="m3 20v0.5c0 0.554 0.446 1 1 1h14c0.554 0 1-0.446 1-1v-0.5c0 0.554-0.446 1-1 1h-14c-0.554 0-1-0.446-1-1z"/>
 </g>
</svg>
